public/star-filled-projects.svg

<?xml version="1.0" encoding="UTF-8" standalone="no"?>
<!DOCTYPE svg PUBLIC "-//W3C//DTD SVG 1.1//EN" "http://www.w3.org/Graphics/SVG/1.1/DTD/svg11.dtd">
<!-- Created with Vectornator (http://vectornator.io/) -->
<svg height="100%" stroke-miterlimit="10" style="fill-rule:nonzero;clip-rule:evenodd;stroke-linecap:round;stroke-linejoin:round;" version="1.1" viewBox="0 0 24 24" width="100%" xml:space="preserve" xmlns="http://www.w3.org/2000/svg" xmlns:vectornator="http://vectornator.io" xmlns:xlink="http://www.w3.org/1999/xlink">
<defs/>
<g id="Untitled" vectornator:layerName="Untitled">
<path d="M11.0829 2.55912C11.3734 1.9072 11.5188 1.58125 11.7211 1.48087C11.8968 1.39366 12.1032 1.39366 12.2789 1.48087C12.4812 1.58125 12.6266 1.9072 12.9172 2.55912L15.2317 7.75168C15.3177 7.9444 15.3606 8.04076 15.4271 8.11455C15.4859 8.17985 15.5578 8.23208 15.638 8.26782C15.7288 8.30824 15.8337 8.31931 16.0436 8.34145L21.6972 8.93818C22.407 9.01308 22.7619 9.05054 22.9199 9.21194C23.0571 9.35213 23.1209 9.54844 23.0922 9.74254C23.0594 9.96596 22.7943 10.2048 22.2641 10.6827L18.0408 14.4886C17.8841 14.6298 17.8057 14.7005 17.7561 14.7865C17.7122 14.8626 17.6847 14.9471 17.6755 15.0345C17.6651 15.1333 17.687 15.2364 17.7308 15.4429L18.9104 21.0042C19.0585 21.7025 19.1325 22.0515 19.0279 22.2516C18.9369 22.4256 18.7699 22.5468 18.5765 22.5796C18.3538 22.6172 18.0447 22.439 17.4264 22.0824L12.5017 19.242C12.319 19.1365 12.2276 19.0839 12.1304 19.0632C12.0444 19.045 11.9556 19.045 11.8696 19.0632C11.7724 19.0839 11.6811 19.1365 11.4983 19.242L6.57367 22.0824C5.95539 22.439 5.64626 22.6172 5.42358 22.5796C5.23014 22.5468 5.06315 22.4256 4.97223 22.2516C4.86756 22.0515 4.9416 21.7025 5.0897 21.0042L6.26926 15.4429C6.31304 15.2364 6.33493 15.1333 6.32454 15.0345C6.31534 14.9471 6.28789 14.8626 6.24396 14.7865C6.19432 14.7005 6.11594 14.6298 5.95921 14.4886L1.73602 10.6827C1.20583 10.2048 0.940721 9.96596 0.90776 9.74254C0.879142 9.54844 0.942918 9.35213 1.08016 9.21194C1.23816 9.05054 1.59306 9.01308 2.30286 8.93818L7.95653 8.34145C8.16637 8.31931 8.27128 8.30824 8.362 8.26782C8.44227 8.23208 8.51414 8.17985 8.57296 8.11455C8.63942 8.04076 8.68237 7.9444 8.76829 7.75168L11.0829 2.55912Z" fill="#134e4a" fill-rule="nonzero" opacity="1" stroke="#134e4a" stroke-linecap="round" stroke-linejoin="round" stroke-width="1.4" vectornator:layerName="path"/>
</g>
</svg>

<svg xmlns="http://www.w3.org/2000/svg" xmlns:vectornator="http://vectornator.io" xml:space="preserve" stroke-miterlimit="10" style="fill-rule:nonzero;clip-rule:evenodd;stroke-linecap:round;stroke-linejoin:round" viewBox="0 0 24 24"><g vectornator:layerName="Untitled"><path vectornator:layerName="path" fill="#134e4a" stroke="#134e4a" stroke-width="1.4" d="M11.083 2.56c.29-.653.436-.979.638-1.08a.627.627 0 0 1 .558 0c.202.101.348.427.638 1.08l2.315 5.192c.086.192.129.289.195.363.059.065.13.117.211.153.09.04.196.051.406.073l5.653.597c.71.075 1.065.113 1.223.274.137.14.2.336.172.53-.033.224-.298.463-.828.94l-4.223 3.807c-.157.14-.235.211-.285.297a.628.628 0 0 0-.08.248c-.01.1.011.202.055.409l1.18 5.561c.147.698.221 1.047.117 1.248a.628.628 0 0 1-.451.328c-.223.037-.532-.141-1.15-.498l-4.925-2.84c-.183-.105-.274-.158-.372-.179a.63.63 0 0 0-.26 0c-.098.02-.189.074-.372.179l-4.924 2.84c-.619.357-.928.535-1.15.498a.627.627 0 0 1-.452-.328c-.104-.2-.03-.55.118-1.248l1.18-5.561c.043-.207.065-.31.055-.409a.627.627 0 0 0-.081-.248c-.05-.085-.128-.156-.285-.297l-4.223-3.806c-.53-.478-.795-.717-.828-.94a.628.628 0 0 1 .172-.531c.158-.161.513-.199 1.223-.274l5.654-.597c.21-.022.314-.033.405-.073a.627.627 0 0 0 .211-.153c.066-.074.11-.17.195-.363l2.315-5.193Z"/></g></svg>
